X:19
T:Quand tes beaux yeux. [FJ19]
S:Festin joyeux.  Music page 10.
Z:transcribed by Eric Conrad, 2021.
N:NB The meter is given simply as "3"
N:NB In the MS, the G is the bottom line of the staff
N:NB Repeat marks were added at beginning and end.
N:NB The MS repeat mark is 4 vertical dots enclosed by bars on both sides.
N:NB The plus signs seem to indicate some kind of roll or trill.
N:NB1 MS has the note with two stems, one up and one down.
M:3/4
L:1/4
% K:C clef=treble1 % MS has G on line 1
K:C % no sharps or flats, ending on C
|: efg | "^+"f>ef | d>e d/4c/d/4 | "^+"d2d | efg | "^+"f>ef |
e/4d/e/4 "^+"e>d | d3 :: d>ef | "^+"e>fg | e"^+"d>c |
d2"_(sic!)"B | d>ef | "^+"e>fg | e"^+"d>c | "_NB1"c3 :|


